X:1
T:Title
%%score { ( 1 4 ) | ( 2 3 ) }
L:1/8
M:6/8
K:Ab
V:1 treble nm="Grand Piano"
V:4 treble 
V:2 bass 
V:3 bass 
V:1
 z6[Q:1/4=100] | [F,A,F]2 =E F2 G | [CA]2 G A2 F | [=EG]2 _G =G2 E | [CF]6 | [F,CF]2 =E F2 c | %6
 [Fc]2 [DB] [DA]2 A | [A,FA]2 G [=EG]2 F |[M:5/8] G-G- G3 |[M:1/8] c |[M:3/4] c2 d c2 =A | %11
 B2 c B2 [=EG] | A2 B A2 F | G6 | [FA]2 G F2 d | d2 c c2 B | [=EB]2 A [B,EG]2 A | %17
[M:4/4] [CF]4- [CF]c/c/- c.A | [Fc]4- [Fc]>d c>A | [Ac]4- [Ac]>d c>A | [Ac]2 [DFd]2 [CFc]2 [F=A]2 | %21
 [DFB]4- [DFB]>B B>B | [Fd]4- [Fd]>A A>A | [Ac]4- [Ac]>A A2 | [E,E]2 [DEGd]2 [CEc]2 [B,DEB]2 | %25
 [EA]6 z2 |] %26
V:2
 z3 z2 C | F,,2 C [F,A,C]2 C | [F,,F,]2 C C2 C | [C,,C,]2 =E C2 C | F,2 C, z2 C | F,,2 C C2 F | %6
 [F,,F,]2 [B,,F,] z2 D | D,2 =E [C,,C,]2 D |[M:5/8] C,2 =E, z2 |[M:1/8] =E | %10
[M:3/4] [F,A,F]2 [F,B,F][K:treble] [F,A,F]2 [=A,F] | [F,B,DF]2 D[K:bass] [D,B,D]2 [C,G,] | %12
 [F,A,F]2 [F,B,F] .[F,A,F]3 | [C,,C,]=E, C,3 F | [F,,F,]2 =E [F,A,C]2[K:treble] [B,DF] | %15
 [B,DFB]2 [A,CF] [A,CF]2 [DF] | [C,,C,]2 =E C,2 E |[M:4/4] F,C, F,,2- F,,[K:treble]A/A/- A.F | %18
 F,,2 C,F, A,>[K:treble]B A>F | F,,2 C,F, A,>[K:treble]B A>F | [F,,F,]2 B,2 A,2 =A,2 | %21
 B,,2 D,F, A,>D D>D | B,,2 D,F, B,>[K:treble]F F>F | F,,2 C,F, A,>[K:treble]F F>F | %24
 F,,2 E,2 A,2 G,2 | A,2 E,C, .A,,2 z2 |] %26
V:3
 x6 | x6 | z3 [F,A,]3 | z3 [C,B,]3 | z3 F,,3 | z3 [F,A,]3 | z3 [D,F,]3 | x6 | %8
[M:5/8] z z2 [C,B,]2- |[M:1/8] [C,B,] |[M:3/4] x3[K:treble] x3 | x3[K:bass] x3 | x6 | x6 | %14
 x5[K:treble] x | x6 | x6 |[M:4/4] x5[K:treble] x3 | x11/2[K:treble] x5/2 | x11/2[K:treble] x5/2 | %20
 x8 | x8 | x11/2[K:treble] x5/2 | x11/2[K:treble] x5/2 | x8 | x8 |] %26
V:4
 x6 | x6 | x6 | x6 | x6 | x6 | x6 | x6 |[M:5/8] =E3 C2 |[M:1/8] x |[M:3/4] x6 | x6 | x6 | %13
 =E2 [B,C]3 A | x6 | x6 | x6 |[M:4/4] x8 | x8 | x8 | x8 | x8 | x8 | x8 | x8 | x8 |] %26

